X: 1340
T: Cheer Boys Cheer
B: australian traditional tunes wiki
M:4/4
L:1/8
R: Schottische
Q: 1/4=100
K:G
V:1 
A2|"G"B2[A2D2]B2BA|GF GBe2d2|B2[A2D2] B3d|ed ^cd "D7"AD FA|
"G"B2[A2D2] B2BA|GF GBe2d2|g2fe dB GA|"D7"Bc BA "G"G2G2||
"D"A2D2A2AG|FD FA dc BA|"G"G2D2G2GD|GB AG GF ED|
"D"A2D2A2AG|FD FA d2(3dcB|Ad cB AF DE|"A7"FG "D"FED2  ||
% abcbook-tune_id 6342d53a70be2258f71bfe3f


% abcbook-boost 0
% abcbook-tablature 
% abcbook-transpose 
% abcbook-lastupdated 1665324360092
% abcbook-soundfonts 
% abcbook-repeats 1
% NFF Book 2008

